X:1
T:Come to the Fountain
T:George Coles Stebbins
T:Come to the Fountain
T:Public Domain
T:Public Domain
C:George Coles Stebbins
Z:Public Domain
%%score ( 1 2 ) ( 3 4 )
L:1/8
M:4/4
K:F
V:1 treble 
V:2 treble 
V:3 bass 
V:4 bass 
V:1
 [Ac]2 [FA]>[GB] [Ac]2 [FA]>[CG] | [CF]4 [A,C]2 z2 | [A,F]2 [CE]>[CF] [EG]2 [GB]>[FA] | [EG]6 z2 | %4
w: 1.~Come with thy sins to the|fount- ain,|Come with thy bur- den of|grief;|
w: 2.~Come as thou art to the|fount- ain,|Je- sus is wait- ing for|thee;|
w: 3.~These are the words of the|Sav- ior;|They who re- pent and be-|lieve,|
w: 4.~Come and be healed at the|fount- ain,|List to the peace speak- ing|voice;|
 [Fc]2 [FA]>[GB] [Ac]2 [FA]>[CG] | [CF]4 [A,C]2 z2 | [CF]2 [CE]>[CF] [EG]2 [FA]>[CG] | [CF]6 z2 || %8
w: Bu- ry them deep in its|wa- ters,|There thou wilt find a re-|lief.|
w: What though thy sins are like|crim- son,|White as the snow they shall|be.|
w: They who are will- ing to|trust Him,|Life at His hand shall re-|ceive.|
w: O- ver a sin- ner re-|turn- ing|Now let the an- gels re-|joice.|
"^Refrain" [FB]2 [FB]>[FB] [FB]4 | [FA]2 [FA]>[FA] [FA]4 | [Fd]2 [Fd]>[Fd] [Fc]2 [EB]>[FA] | %11
w: |||
w: Haste thee a- way,|why wilt thou stay?|Risk not thy soul on a|
w: |||
w: |||
 G2 [F=B]>[FB] [Ec]4 | [Fc]2 [FA]>[GB] [Ac]2 [FA]>[CG] | [CF]4 [A,C]2 z2 | %14
w: |||
w: mo- ment’s de- lay;|sus is wait- ing to save|thee, Mer-|
w: |||
w: |||
 [CF]2 [CE]>[CF] [EG]2 [FA]>[CG] | [CF]6 z2 |] %16
w: ||
w: cy is plead- ing to- day.||
w: ||
w: ||
V:2
 x8 | x8 | x8 | x8 | x8 | x8 | x8 | x8 || x8 | x8 | x8 | G2 x6 | x8 | x8 | x8 | x8 |] %16
w: ||||||||||||||||
w: |||||||||||Je-|||||
V:3
 [F,C]2 [F,C]>[F,C] [F,C]2 [F,C]>[F,B,] | [F,A,]4 F,2 z2 | %2
 [C,A,]2 [C,G,]>[C,A,] [C,C]2 [E,C]>[F,C] | [C,C]6 z2 | [F,A,]2 [F,C]>[F,C] [F,C]2 [F,C]>[F,B,] | %5
 [F,A,]4 F,2 z2 | [C,A,]2 [C,G,]>[C,A,] [C,B,]2 [C,C]>[C,B,] | [F,A,]6 z2 || %8
 [B,,D]2 [B,,D]>[B,,D] [B,,D]4 | [F,C]2 [F,C]>[F,C] [F,C]4 | B,2 B,>B, [A,C]2 [G,C]>[F,C] | %11
 [E,C]2 [D,G,]>[D,G,] [C,G,]4 | [F,A,]2 [F,C]>[F,C] [F,C]2 [F,C]>[F,B,] | [F,A,]4 F,2 z2 | %14
 [C,A,]2 [C,G,]>[C,A,] [C,B,]2 [C,C]>[C,B,] | [F,A,]6 z2 |] %16
V:4
 x8 | x4 F,2 x2 | x8 | x8 | x8 | x4 F,2 x2 | x8 | x8 || x8 | x8 | B,2 B,>B, x4 | x8 | x8 | %13
 x4 F,2 x2 | x8 | x8 |] %16

